X: 517
%
U:~=!turn!
T: The New Rigged Ship
C:
O:Scotland
B:Keith Norman MacDonald : "The Skye collection of the best reels & strathspeys extant" : 1887
Z:Ralph Palmer
R:Jig
M:6/8
L:1/8
K:C
!mf!G | c2 c c2 e | c2 c c2 e | dBG GBd | dBG GAB | c2 c c2 e | c2 c dBG | ABc dBG | c3 c2 :|
!f!e/f/ | g2 e g2 e | c2 c ceg | a2 f a2 f | d2 d def | g2 e g2 e | c2 c dBG | ABc dBG | c3- c2 e/f/ |
!f!gfe gfe | cdc ceg | agf agf | ded def | gfe gfe | cdc dBG | ABc dBG | c3 c2 |]


